src/assets/duotone/CalendarSearch.svg

<svg width="24" height="24" viewBox="0 0 24 24"  xmlns="http://www.w3.org/2000/svg">
<path opacity="0.4" d="M20 9.83984C20.55 9.83984 21 10.2898 21 10.8398V16.9998C21 19.9998 19.5 21.9998 16 21.9998H8C4.5 21.9998 3 19.9998 3 16.9998V10.8398C3 10.2898 3.45 9.83984 4 9.83984H20Z" />
<path d="M16.7502 3.56V2C16.7502 1.59 16.4102 1.25 16.0002 1.25C15.5902 1.25 15.2502 1.59 15.2502 2V3.5H8.75024V2C8.75024 1.59 8.41024 1.25 8.00024 1.25C7.59024 1.25 7.25024 1.59 7.25024 2V3.56C4.55024 3.81 3.24023 5.42 3.04023 7.81C3.02023 8.1 3.26023 8.34 3.54023 8.34H20.4602C20.7502 8.34 20.9902 8.09 20.9602 7.81C20.7602 5.42 19.4502 3.81 16.7502 3.56Z" />
<path d="M15.6599 18.47L14.9199 17.73C15.2999 17.15 15.5299 16.45 15.5299 15.7C15.5299 13.66 13.8699 12 11.8299 12C9.78988 12 8.12988 13.66 8.12988 15.7C8.12988 17.74 9.78988 19.4 11.8299 19.4C12.5799 19.4 13.2799 19.17 13.8599 18.79L14.5999 19.53C14.7499 19.68 14.9399 19.75 15.1299 19.75C15.3199 19.75 15.5099 19.68 15.6599 19.53C15.9499 19.24 15.9499 18.76 15.6599 18.47Z" />
</svg>

<?xml version="1.0" encoding="UTF-8"?>
<svg width="24" height="24" viewBox="0 0 24 24" xmlns="http://www.w3.org/2000/svg">
 <path d="m20 9.8398c0.55 0 1 0.44996 1 0.99996v6.16c0 3-1.5 5-5 5h-8c-3.5 0-5-2-5-5v-6.16c0-0.55 0.45-0.99996 1-0.99996h16z" opacity=".4"/>
 <path d="m16.75 3.56v-1.56c0-0.41-0.34-0.75-0.75-0.75s-0.75 0.34-0.75 0.75v1.5h-6.5v-1.5c0-0.41-0.34-0.75-0.75-0.75s-0.75 0.34-0.75 0.75v1.56c-2.7 0.25-4.01 1.86-4.21 4.25-0.02 0.29 0.22 0.53 0.5 0.53h16.92c0.29 0 0.53-0.25 0.5-0.53-0.2-2.39-1.51-4-4.21-4.25z"/>
 <path d="m15.66 18.47-0.74-0.74c0.38-0.58 0.61-1.28 0.61-2.03 0-2.04-1.66-3.7-3.7-3.7-2.04 0-3.7 1.66-3.7 3.7s1.66 3.7 3.7 3.7c0.75 0 1.45-0.23 2.03-0.61l0.74 0.74c0.15 0.15 0.34 0.22 0.53 0.22s0.38-0.07 0.53-0.22c0.29-0.29 0.29-0.77 0-1.06z"/>
</svg>
